packages/foundations/assets/icons/functional/images/devices/mobile_phone_disabled_28.svg

<svg width="28" height="28" viewBox="0 0 28 28" fill="none" xmlns="http://www.w3.org/2000/svg">
<g clip-path="url(#clip0_185_735)">
<path fill-rule="evenodd" clip-rule="evenodd" d="M21 10.7153V23.625C21 25.0747 19.8247 26.25 18.375 26.25H9.625C8.53359 26.2456 7.55998 25.563 7.18375 24.5385L8.75 22.9626V23.625C8.75 24.1082 9.14175 24.5 9.625 24.5H18.375C18.8582 24.5 19.25 24.1082 19.25 23.625V12.4653L21 10.7153ZM18.3642 1.75C19.814 1.75 21 2.92525 21 4.375V5.76275L22.9956 3.75638C23.2153 3.52891 23.5406 3.43769 23.8466 3.51777C24.1525 3.59784 24.3914 3.83676 24.4715 4.14268C24.5516 4.44861 24.4603 4.77394 24.2329 4.99363L4.98287 24.2436C4.63954 24.5752 4.0938 24.5705 3.75628 24.233C3.41876 23.8954 3.41402 23.3497 3.74562 23.0064L7 19.7628V4.375C7 2.92525 8.1645 1.75 9.61425 1.75H18.3642ZM15.75 21C16.2332 21 16.625 21.3918 16.625 21.875C16.625 22.3582 16.2332 22.75 15.75 22.75H12.25C11.7668 22.75 11.375 22.3582 11.375 21.875C11.375 21.3918 11.7668 21 12.25 21H15.75ZM10.5 3.5H9.625C9.14175 3.5 8.75 3.89175 8.75 4.375V18.0128L19.25 7.51275V4.375C19.25 3.89175 18.8582 3.5 18.375 3.5H17.5C17.5 3.98325 17.1082 4.375 16.625 4.375H11.375C10.8918 4.375 10.5 3.98325 10.5 3.5Z" fill="#1A1C1F"/>
</g>
<defs>
<clipPath id="clip0_185_735">
<rect width="28" height="28" fill="white"/>
</clipPath>
</defs>
</svg>

<svg xmlns="http://www.w3.org/2000/svg" width="28" height="28" fill="none"><g clip-path="url(#a)"><path fill="#1A1C1F" fill-rule="evenodd" d="M21 10.715v12.91a2.625 2.625 0 0 1-2.625 2.625h-8.75a2.61 2.61 0 0 1-2.441-1.712l1.566-1.575v.662c0 .483.392.875.875.875h8.75a.875.875 0 0 0 .875-.875v-11.16zM18.364 1.75A2.634 2.634 0 0 1 21 4.375v1.388l1.996-2.007a.875.875 0 1 1 1.237 1.238l-19.25 19.25a.875.875 0 0 1-1.237-1.238L7 19.763V4.375A2.616 2.616 0 0 1 9.614 1.75zM15.75 21a.875.875 0 0 1 0 1.75h-3.5a.875.875 0 0 1 0-1.75zM10.5 3.5h-.875a.875.875 0 0 0-.875.875v13.638l10.5-10.5V4.375a.875.875 0 0 0-.875-.875H17.5a.875.875 0 0 1-.875.875h-5.25A.875.875 0 0 1 10.5 3.5" clip-rule="evenodd"/></g><defs><clipPath id="a"><path fill="#fff" d="M0 0h28v28H0z"/></clipPath></defs></svg>
